X: 10
T: Merrily Kiss the Quaker's Wife
N: page 3
N: matches 176
N: hexatonic
R: Jig
O: Eire
M: 6/8
L: 1/8
K: G
|: D | "G"GAB D2B | "Am"c2A "Em"AGE | "G"GAB DEG | "D"~A3 "Am"AGE \
     | "G"GAB D2B | "Am"c2A "Em"AGE | "G"GAB D2E | G3  G2 ::
   c | "G"BGG AGG | BGG "Am"AGE | "G"GAB DEG | "D"A3 AGA \
     | "G"BGG AGG | BGG "Am"AGE | "G"GAB D2E | G3  G2 :|
|:d  | "G"~g3 "D"aga | "Em"bge "G"dBd |~g3 gab | "D"~a3 aba \
     | "G"gbg "D"faf | "Em"ege "G"dBA | "G"GAB D2E | G3 G2 :|
